X:2515
T:Cantar d'Ánimes (CT 446)
R:Ánimes
C:Tradicional
S:Música Tradicional Asturiana, (C) Tello & Tito. Asturies, 2001.
S:http://pagina.de/MusTradAst <telloytito@asturies.org>
N:Canción de ánimas, transcrita en Cuideiru.
N:(Ver CT 173 y CT 174).
O:Cuideiru
A:Asturies
Z:Cancioneru de Torner 446
M:6/8
L:1/8
Q:1/4=66
W:Las ánimas esta noche,
W:traen pedimento divino:
W:el andar de puerta enpuerta
W:pidiendo por Jesucristo.
W:
W:Si quieren saber, señores,
W:lo que las ánimas pasan,
W:metan la mano en el fuego
W:y verán cómo se abrasan.
K:C
G
|c2 c cee|(d3/2e/4d/4)c-c2 G|
c2 c cee|(d3/2e/4d/4)c-czd|
(c3/2d/4c/4)A cde|{d}(B3/2c/4B/4)A-AzA|
d2 c Acd|{c}(A3/2B/4A/4)G-G ||


